dist/images/service-3.svg

<svg xmlns="http://www.w3.org/2000/svg" width="101" height="105"><path fill-rule="evenodd" fill="#DB8306" d="M48.963 58.216v44.979c0 2.394-3.641 2.394-3.641 0V86.707c-.79.614-1.697 1.081-2.678 1.933l1.816 3.55c2.915 6.19-14.564 13.404-17.207 7.63a1.112 1.112 0 01-.047-.115l-4.979-10.838a7.49 7.49 0 01-3.111.674c-4.128 0-7.491-3.342-7.491-6.581 0-3.797 1.738-6.432 4.875-7.636L2.628 46.205C.997 44.481.2 42.16.2 39.608c0-2.138.297-4.63 1.171-6.279C3.439 29.431 7.494 28.62 11.7 28.62c4.762 0 10.13 1.173 14.004 3.203 1.116.387.636.535.742.915l6.243 21.087v-2.842c0-5 5.124-10.288 10.02-10.759l11.121-.048c3.514-.015 3.404-.405 5.023 3.254 1.591 3.8 3.277 13.387 4.489 14.283l.957-17.56c2.114-.005 2.633-.005 5.161 0l.887 17.56c1.195-.884 2.852-10.543 4.423-14.134 1.813-4.142 1.804-3.417 5.902-3.399l10.308.044c4.897.471 10.02 5.759 10.02 10.759v39.205c0 2.277-.22 4.332-2.407 5.808-2.785 2.767-7.126 3.464-10.225.638v6.561c0 2.394-3.642 2.394-3.642 0V58.216c0-2.394 3.642-2.395 3.642 0 0 7.347.022 24.624.022 31.972 0 1.169.497 2.248 1.297 3.045 2.86 3.507 8.158 1.047 8.158-3.045V50.983c.016-2.23-3.277-6.336-5.85-7.285-.367-.136-1.735-.517-2.295-.509h-9.173l-2.098.275c-2.28.298-4.501 17.383-7.978 17.092-1.143-.095-6.07-.095-7.213 0-3.477.291-4.718-17.167-7.916-17.278l-2.16-.089h-9.173c-.326-.008-1.379.373-2.295.509-2.573.949-5.867 5.055-5.85 7.285v22.28l5.976 11.401c.314-.101 1.351-.534 2.38-1.36.602-.796 1.099-1.874 1.099-3.043 0-7.349.023-14.698.023-22.045 0-2.395 3.641-2.394 3.641 0zm2.81-42.529c0-4.056 1.536-8.4 4.716-11.538a14.349 14.349 0 014.139-2.851v5.244c0 1.97 2.996 1.969 2.996 0V.309a36.357 36.357 0 016.243 0v6.233c0 1.97 2.996 1.969 2.996 0V1.298c1.502.685 2.907 1.635 4.337 2.851 2.982 3.138 4.768 7.349 4.768 11.538h3.591c1.982 0 1.98 2.978 0 2.978H47.932c-1.979 0-1.982-2.978 0-2.978h3.841zm7.188 15.533c4.252 4.028 11.317 4.028 15.568 0 1.765-1.952 2.854-4.02 3.136-6.678H55.826c.282 2.658 1.371 4.726 3.135 6.678zm-2.118 1.908a13.854 13.854 0 01-4.074-9.964l.004-1.601h27.953c0 .002-.018.698-.006 1.727.07 3.511-1.386 7.167-4.072 9.838-5.416 5.382-14.389 5.383-19.805 0zM24.683 87.7l5.238 10.773c.021.037.041.075.059.114.997 2.181 12.957-2.733 11.765-5.335l-2.289-4.983-20.739-45.145c-1.856 4.7-6.924 7.032-11.566 5.784l11.826 25.743.139-.002c4.128 0 7.491 3.343 7.491 8.311 0 1.44-.728 2.789-1.924 4.74zm-5.567-10.071c-2.49 0-4.494 1.991-4.494 5.331 0 1.611 2.004 3.602 4.494 3.602 2.49 0 4.494-1.991 4.494-3.602 0-3.34-2.004-5.331-4.494-5.331zm13.573-11.234v-2.418a1.482 1.482 0 01-.257-.496l-8.677-29.313c-3.458-1.716-8.02-2.758-12.055-2.758-3.055 0-6.157.424-7.54 3.304-.795 1.227-1.166 2.834-1.166 4.894 0 1.838.75 3.502 1.961 4.706 1.575 1.092 2.576 1.806 4.22 1.93l.005.001.126.008.04.002h.003c4.107.191 8.598-4.49 6.397-8.377-1.861-3.206-8.026-1.378-7.586 1.737.65.819-.695 1.536-1.519 1.6-.824.064-.681-.548-1.331-1.367-.317-.465-.01-.903.24-1.314-.008-3.867 4.443-5.826 7.952-5.387h.006c1.943.243 5.195 2.799 6.072 4.713l13.109 28.535z"/></svg>

<svg 
 xmlns="http://www.w3.org/2000/svg"
 xmlns:xlink="http://www.w3.org/1999/xlink"
 width="101px" height="105px">
<path fill-rule="evenodd"  fill="rgb(219, 131, 6)"
 d="M48.963,58.216 L48.963,103.195 C48.963,105.589 45.322,105.589 45.322,103.195 L45.322,86.707 C44.532,87.321 43.625,87.788 42.644,88.64 L44.460,92.19 C47.375,98.380 29.896,105.594 27.253,99.820 C27.235,99.782 27.219,99.743 27.206,99.705 L22.227,88.867 C21.278,89.299 20.225,89.541 19.116,89.541 C14.988,89.541 11.625,86.199 11.625,82.96 C11.625,79.163 13.363,76.528 16.5,75.324 L2.628,46.205 C0.997,44.481 0.2,42.160 0.2,39.608 C0.2,37.47 0.497,34.978 1.371,33.329 C3.439,29.431 7.494,28.62 11.700,28.62 C16.462,28.62 21.830,29.793 25.704,31.823 C26.82,32.21 26.340,32.358 26.446,32.738 L32.689,53.825 L32.689,50.983 C32.689,45.983 37.813,40.695 42.709,40.224 L53.830,40.176 C57.344,40.161 57.234,39.771 58.853,43.430 C60.444,47.23 62.130,56.817 63.342,57.713 L64.299,40.153 C66.413,40.148 66.932,40.148 69.46,40.153 L70.347,57.713 C71.542,56.829 73.199,47.170 74.770,43.579 C76.583,39.437 76.574,40.162 80.672,40.180 L90.980,40.224 C95.877,40.695 101.0,45.983 101.0,50.983 L101.0,90.188 C101.0,92.465 100.78,94.520 98.593,95.996 C95.808,98.763 91.467,99.46 88.368,96.634 L88.368,103.195 C88.368,105.589 84.726,105.589 84.726,103.195 L84.726,58.216 C84.726,55.822 88.368,55.821 88.368,58.216 C88.368,65.563 88.390,82.840 88.390,90.188 C88.390,91.357 88.887,92.436 89.687,93.233 C92.547,96.74 97.845,94.280 97.845,90.188 L97.845,50.983 C97.861,48.753 94.568,44.647 91.995,43.698 C91.628,43.562 90.26,43.181 89.700,43.189 L80.527,43.189 L78.429,43.464 C76.149,43.762 73.928,60.847 70.451,60.556 C69.308,60.461 64.381,60.461 63.238,60.556 C59.761,60.847 58.52,43.389 55.322,43.278 L53.162,43.189 L43.989,43.189 C43.663,43.181 42.61,43.562 41.694,43.698 C39.121,44.647 35.827,48.753 35.844,50.983 L35.844,73.263 L41.82,84.664 C42.134,84.563 43.171,84.130 44.2,83.304 C44.802,82.508 45.299,81.430 45.299,80.261 C45.299,72.912 45.322,65.563 45.322,58.216 C45.322,55.821 48.963,55.822 48.963,58.216 L48.963,58.216 ZM51.773,15.687 C51.773,11.631 53.309,7.287 56.489,4.149 C57.721,2.933 59.126,1.982 60.628,1.298 L60.628,6.542 C60.628,8.512 63.624,8.511 63.624,6.542 L63.624,0.309 C65.678,0.130 67.813,0.130 69.867,0.309 L69.867,6.542 C69.867,8.512 72.863,8.511 72.863,6.542 L72.863,1.298 C74.365,1.983 75.770,2.933 77.2,4.149 C80.182,7.287 81.968,11.498 81.968,15.687 L85.559,15.687 C87.541,15.687 87.539,18.665 85.559,18.665 L47.932,18.665 C45.953,18.665 45.950,15.687 47.932,15.687 L51.773,15.687 L51.773,15.687 ZM58.961,31.22 C63.213,35.248 70.278,35.248 74.529,31.22 C76.294,29.268 77.383,27.2 77.665,24.542 L55.826,24.542 C56.108,27.2 57.197,29.268 58.961,31.22 L58.961,31.22 ZM56.843,33.128 C54.186,30.487 52.736,26.894 52.769,23.164 L52.773,21.563 L80.726,21.563 C80.726,21.565 80.708,22.261 80.720,23.29 C80.790,26.801 79.334,30.457 76.648,33.128 C71.232,38.510 62.259,38.511 56.843,33.128 L56.843,33.128 ZM24.683,87.70 L29.921,98.473 C29.942,98.510 29.962,98.548 29.980,98.587 C30.977,100.768 42.937,95.854 41.745,93.252 L39.456,88.269 L18.717,43.124 C16.861,47.824 11.793,50.156 7.151,48.908 L18.977,74.651 L19.116,74.649 C23.244,74.649 26.607,77.992 26.607,82.96 C26.607,84.4 25.879,85.749 24.683,87.70 L24.683,87.70 ZM19.116,77.629 C16.626,77.629 14.622,79.620 14.622,82.96 C14.622,84.571 16.626,86.562 19.116,86.562 C21.606,86.562 23.610,84.571 23.610,82.96 C23.610,79.620 21.606,77.629 19.116,77.629 L19.116,77.629 ZM32.689,66.395 L32.689,63.977 C32.576,63.834 32.487,63.666 32.432,63.481 L23.755,34.168 C20.297,32.452 15.735,31.41 11.700,31.41 C8.645,31.41 5.543,31.834 4.16,34.714 C3.365,35.941 2.994,37.548 2.994,39.608 C2.994,41.446 3.744,43.110 4.955,44.314 C6.53,45.406 7.531,46.120 9.175,46.244 L9.180,46.245 L9.306,46.253 L9.346,46.255 L9.349,46.255 C13.456,46.446 17.947,41.765 15.746,37.878 C13.885,34.672 7.720,36.5 8.16,39.615 C8.81,40.434 7.465,41.151 6.641,41.215 C5.817,41.279 5.96,40.667 5.31,39.848 C4.993,39.383 5.3,38.945 5.55,38.534 C5.542,34.667 9.993,32.708 13.502,33.147 L13.508,33.147 C15.451,33.390 18.703,35.946 19.580,37.860 L32.689,66.395 L32.689,66.395 Z"/>
</svg>
